usr/share/icons/biglinux-icons-material/24/actions/mail-meeting-request-reply.svg

<svg xmlns="http://www.w3.org/2000/svg" viewBox="0 0 24 24">
  <defs id="defs3051">
    <style type="text/css" id="current-color-scheme">
      .ColorScheme-Text {
        color:#dedede;
      }
      .ColorScheme-NeutralText {
        color:#f67400;
      }
      </style>
  </defs>
  <path style="fill:currentColor;fill-opacity:1;stroke:none" 
     d="M 2 4 L 2 5 L 2 13 L 2 19 L 2 19.414062 L 2 20 L 3 20 L 9 20 L 15 20 L 15 19 L 9 19 L 3 19 L 3 18.414062 L 3.4628906 17.951172 L 9.7304688 11.683594 L 11.183594 13.134766 L 11.998047 13.949219 L 12 13.949219 L 12.816406 13.134766 L 14.269531 11.683594 L 15.585938 13 L 17 13 L 14.976562 10.976562 L 20.728516 5.2226562 L 20.951172 5 L 21 5 L 21 5.2226562 L 21 13 L 22 13 L 22 4 L 21.951172 4 L 21 4 L 20.537109 4 L 3.4628906 4 L 3 4 L 2 4 z M 3 5 L 3.0488281 5 L 3.2714844 5.2226562 L 9.0234375 10.976562 L 3 17 L 3 13 L 3 5.2226562 L 3 5 z M 4.4628906 5 L 19.537109 5 L 12 12.537109 L 4.4628906 5 z "
     class="ColorScheme-Text"
     />
  <path
     style="fill:currentColor;fill-opacity:1;stroke:none" 
     class="ColorScheme-NeutralText"
     d="M 19 14 L 19 18 L 20 18 L 20 14 L 19 14 z M 19 19 L 19 20 L 20 20 L 20 19 L 19 19 z "
      />
</svg>

<svg xmlns="http://www.w3.org/2000/svg" viewBox="0 0 24 24"><path d="M2 4v16h13v-1H3v-.586l.463-.463 6.267-6.267 1.454 1.45.814.815H12l.816-.814 1.454-1.451L15.586 13H17l-2.023-2.023 5.752-5.754L20.95 5H21v8h1V4H2zm1 1h.049l.222.223 5.752 5.754L3 17V5zm1.463 0h15.074L12 12.537 4.463 5z" style="fill:currentColor;fill-opacity:1;stroke:none;color:#dedede"/><path d="M19 14v4h1v-4h-1zm0 5v1h1v-1h-1z" style="fill:currentColor;fill-opacity:1;stroke:none;color:#f67400"/></svg>
